assets/search.svg

<svg xmlns="http://www.w3.org/2000/svg" width="24" height="24" fill="none">
  <mask id="a" width="20" height="20" x="2" y="2" maskUnits="userSpaceOnUse" style="mask-type:alpha">
    <path fill="#fff" fill-rule="evenodd" d="m21.8336 20.2158-5.1748-5.2131c-.1943-.1954-.2137-.4965-.0634-.7274 2.1217-3.2543 1.6268-7.72963-1.5034-10.40274-3.012-2.5714-7.59655-2.4834-10.51481.19542-3.3497 3.07483-3.43427 8.30852-.25257 11.49242 2.71312 2.7154 6.91248 3.0451 9.99648 1.0052.2314-.1532.5349-.1332.7303.0634l5.1634 5.2022c.2234.2246.5857.2252.8097.0012l.808-.8086c.2229-.2229.2234-.584.0011-.808ZM5.94061 13.9427c-2.20799-2.2097-2.20799-5.80505 0-8.01474 2.20798-2.20969 5.80049-2.21026 8.00849 0 2.208 2.20969 2.208 5.80504 0 8.01474-2.208 2.2097-5.80051 2.2097-8.00849 0Z" clip-rule="evenodd"/>
  </mask>
  <g mask="url(#a)">
    <path fill="#E7C35D" d="M0 0h24v24H0z"/>
  </g>
</svg>

<svg width="24" height="24" viewBox="0 0 24 24" fill="none" xmlns="http://www.w3.org/2000/svg">
<mask id="mask0_323_5985" style="mask-type:alpha" maskUnits="userSpaceOnUse" x="2" y="2" width="20" height="20">
<path fill-rule="evenodd" clip-rule="evenodd" d="M21.8336 20.2158L16.6588 15.0027C16.4645 14.8073 16.4451 14.5062 16.5954 14.2753C18.7171 11.021 18.2222 6.54567 15.092 3.87256C12.08 1.30116 7.49545 1.38916 4.57719 4.06798C1.22749 7.14281 1.14292 12.3765 4.32462 15.5604C7.03774 18.2758 11.2371 18.6055 14.3211 16.5656C14.5525 16.4124 14.856 16.4324 15.0514 16.629L20.2148 21.8312C20.4382 22.0558 20.8005 22.0564 21.0245 21.8324L21.8325 21.0238C22.0554 20.8009 22.0559 20.4398 21.8336 20.2158ZM5.94061 13.9427C3.73262 11.733 3.73262 8.13765 5.94061 5.92796C8.14859 3.71827 11.7411 3.7177 13.9491 5.92796C16.1571 8.13765 16.1571 11.733 13.9491 13.9427C11.7411 16.1524 8.14859 16.1524 5.94061 13.9427Z" fill="white"/>
</mask>
<g mask="url(#mask0_323_5985)">
<rect width="24" height="24" fill="#E7C35D"/>
</g>
</svg>
